src/public/assets/icons/loader.svg

<svg xmlns="http://www.w3.org/2000/svg" viewBox="0 0 512 512"><!--! Font Awesome Pro 6.1.2 by @fontawesome - https://fontawesome.com License - https://fontawesome.com/license (Commercial License) Copyright 2022 Fonticons, Inc.--><path d="M304 48c0 26.51-21.5 48-48 48s-48-21.49-48-48 21.5-48 48-48 48 21.49 48 48zm0 416c0 26.5-21.5 48-48 48s-48-21.5-48-48 21.5-48 48-48 48 21.5 48 48zM0 256c0-26.5 21.49-48 48-48s48 21.5 48 48-21.49 48-48 48-48-21.5-48-48zm512 0c0 26.5-21.5 48-48 48s-48-21.5-48-48 21.5-48 48-48 48 21.5 48 48zM74.98 437c-18.75-18.7-18.75-49.1 0-67.9 18.75-18.7 49.12-18.7 67.92 0 18.7 18.8 18.7 49.2 0 67.9-18.8 18.8-49.17 18.8-67.92 0zm67.92-294.1c-18.8 18.7-49.17 18.7-67.92 0-18.74-18.8-18.74-49.17 0-67.92 18.75-18.75 49.12-18.75 67.92 0 18.7 18.75 18.7 49.12 0 67.92zm226.2 226.2c18.8-18.7 49.2-18.7 67.9 0 18.8 18.8 18.8 49.2 0 67.9-18.7 18.8-49.1 18.8-67.9 0-18.7-18.7-18.7-49.1 0-67.9z" fill="#372865"/></svg>

<svg xmlns="http://www.w3.org/2000/svg" viewBox="0 0 512 512">
  <!--! Font Awesome Pro 6.1.2 by @fontawesome - https://fontawesome.com License - https://fontawesome.com/license (Commercial License) Copyright 2022 Fonticons, Inc. -->
  <path
    d="M304 48C304 74.51 282.5 96 256 96C229.5 96 208 74.51 208 48C208 21.49 229.5 0 256 0C282.5 0 304 21.49 304 48zM304 464C304 490.5 282.5 512 256 512C229.5 512 208 490.5 208 464C208 437.5 229.5 416 256 416C282.5 416 304 437.5 304 464zM0 256C0 229.5 21.49 208 48 208C74.51 208 96 229.5 96 256C96 282.5 74.51 304 48 304C21.49 304 0 282.5 0 256zM512 256C512 282.5 490.5 304 464 304C437.5 304 416 282.5 416 256C416 229.5 437.5 208 464 208C490.5 208 512 229.5 512 256zM74.98 437C56.23 418.3 56.23 387.9 74.98 369.1C93.73 350.4 124.1 350.4 142.9 369.1C161.6 387.9 161.6 418.3 142.9 437C124.1 455.8 93.73 455.8 74.98 437V437zM142.9 142.9C124.1 161.6 93.73 161.6 74.98 142.9C56.24 124.1 56.24 93.73 74.98 74.98C93.73 56.23 124.1 56.23 142.9 74.98C161.6 93.73 161.6 124.1 142.9 142.9zM369.1 369.1C387.9 350.4 418.3 350.4 437 369.1C455.8 387.9 455.8 418.3 437 437C418.3 455.8 387.9 455.8 369.1 437C350.4 418.3 350.4 387.9 369.1 369.1V369.1z"
    fill="#372865" />
</svg>
